src/assets/img/lg-logo-main.svg

<?xml version="1.0" encoding="UTF-8"?>
<svg width="300px" height="407px" viewBox="0 0 300 407" version="1.1" xmlns="http://www.w3.org/2000/svg" xmlns:xlink="http://www.w3.org/1999/xlink">
    <title>99B2EA6A-2F2D-475B-907C-EB0C6F17102D</title>
    <defs>
        <filter x="-17.2%" y="-273.6%" width="134.5%" height="647.3%" filterUnits="objectBoundingBox" id="filter-1">
            <feGaussianBlur stdDeviation="10" in="SourceGraphic"></feGaussianBlur>
        </filter>
        <linearGradient x1="15.076769%" y1="28.3640026%" x2="63.3459354%" y2="57.8311393%" id="linearGradient-2">
            <stop stop-color="#CF44FB" offset="0%"></stop>
            <stop stop-color="#2854C6" offset="57%"></stop>
            <stop stop-color="#1E46B6" offset="79%"></stop>
            <stop stop-color="#001A86" offset="100%"></stop>
        </linearGradient>
        <linearGradient x1="41.0743886%" y1="77.0056848%" x2="62.3737419%" y2="31.3740687%" id="linearGradient-3">
            <stop stop-color="#11DADC" offset="0%"></stop>
            <stop stop-color="#0C7CFE" offset="100%"></stop>
        </linearGradient>
        <linearGradient x1="49.2226633%" y1="92.1584111%" x2="53.1472696%" y2="26.3718249%" id="linearGradient-4">
            <stop stop-color="#11D8DD" offset="0%"></stop>
            <stop stop-color="#0C7CFE" offset="100%"></stop>
        </linearGradient>
    </defs>
    <g id="Главная" stroke="none" stroke-width="1" fill="none" fill-rule="evenodd">
        <g id="Главная-1920" transform="translate(-1170.000000, -142.000000)">
            <g id="Блок" transform="translate(0.000000, -1.000000)">
                <g id="Лого" transform="translate(1170.000000, 143.000000)">
                    <g id="тень" transform="translate(63.000000, 366.000000)" fill="#000000" opacity="0.699999988">
                        <path d="M77.2662055,0.148084263 C83.2588703,-0.0475000664 90.6418553,-0.0494741017 96.6674922,0.142936289 L106.99446,0.472717972 L106.99446,0.472717972 L164.011471,2.26959171 L164.011471,2.26959171 C170.23288,2.46564052 174.061756,2.83726235 174,3.2389205 L173.400254,7.0641366 L173.400254,7.0641366 C173.380334,7.19353268 172.150065,7.31274894 170.164875,7.37777599 C168.178997,7.44280303 165.732199,7.44400294 163.726401,7.38094993 L118.078011,5.94512948 L118.078011,5.94512948 C116.553055,5.89721074 115.435441,5.81670106 114.975894,5.72179254 C114.516346,5.62688401 114.75402,5.52555019 115.634647,5.44058926 L115.928579,5.41160463 L115.928579,5.41160463 L116.230038,5.38153197 L116.230038,5.38153197 L116.695178,5.33443112 L116.695178,5.33443112 L117.013128,5.30173473 L117.013128,5.30173473 L117.336742,5.26802737 L117.336742,5.26802737 L117.665489,5.23333106 L117.665489,5.23333106 L117.998836,5.19766781 L117.998836,5.19766781 L118.33625,5.16105963 L118.33625,5.16105963 L118.6772,5.12352854 L118.6772,5.12352854 L119.021152,5.08509654 C119.078698,5.07861736 119.136347,5.07210156 119.194087,5.06554959 L119.541546,5.02580753 C119.599609,5.01911275 119.657743,5.01238273 119.715935,5.00561792 L120.065701,4.96461532 C120.124083,4.9577132 120.182501,4.95077722 120.240945,4.94380783 L120.591822,4.90159422 C120.650322,4.89449302 120.708826,4.88735933 120.767321,4.8801936 L121.11811,4.83681852 C121.351787,4.80765041 121.584982,4.77798444 121.816984,4.74784996 L122.164005,4.70230052 C122.221663,4.6946516 122.279224,4.68697432 122.336678,4.67926913 L122.680017,4.63270681 C122.964908,4.59363193 123.246549,4.55388232 123.523554,4.51351531 C123.831116,4.42638277 123.567881,4.33492892 122.753169,4.25682604 C121.702873,4.15607282 119.861248,4.08961363 117.797749,4.07800166 C96.7478615,3.96509457 76.6363025,3.99853705 55.5788586,4.12115949 C53.528411,4.13327465 51.7012115,4.19954031 50.6557237,4.29967422 C49.609549,4.39976942 49.4687309,4.52192738 50.2758585,4.62883494 C58.5435928,5.71799929 69.0348778,6.72053832 81.4694512,7.67152019 C82.6942244,7.76495787 84.6327045,7.82011474 86.6941427,7.82023086 C88.7562679,7.82034698 90.6961218,7.76538364 91.9243296,7.67210079 L96.7873614,7.30278097 L96.7873614,7.30278097 L97.0353915,7.28226837 L97.0353915,7.28226837 L97.5205618,7.24168337 C97.6002096,7.23497013 97.6792492,7.22828302 97.7576785,7.22162306 L98.2209159,7.18199702 C98.2968964,7.17544965 98.3722628,7.16893143 98.447013,7.16244338 L98.888105,7.12388504 L98.888105,7.12388504 L99.3143153,7.0860989 L99.3143153,7.0860989 L99.7255495,7.0491333 L99.7255495,7.0491333 L100.121713,7.01303656 L100.121713,7.01303656 L100.502712,6.97785701 C100.564943,6.97207287 100.626538,6.96632896 100.687495,6.96062629 L101.045569,6.92691313 L101.045569,6.92691313 L101.388242,6.89423798 L101.388242,6.89423798 L101.715419,6.86264916 C102.580883,6.77719495 104.019461,6.71492982 105.707899,6.68990102 C107.396337,6.66487221 109.19251,6.67915582 110.691458,6.72961276 L155.583,8.23929795 L155.583,8.23929795 C157.554971,8.30565236 158.759929,8.42565362 158.753457,8.55507596 C158.746641,8.68446478 157.529522,8.80410877 155.550774,8.86977892 L97.059929,10.8116172 C90.9180373,11.0154966 83.2920855,11.0144623 77.1682768,10.8088882 L17.999272,8.82272082 L17.999272,8.82272082 L18.0920094,8.82465623 L18.0920094,8.82465623 L9.77797366,8.55495909 L9.77797366,8.55495909 C3.70150495,8.3578652 -0.031202606,7.99224288 0,7.59716486 L0.339045714,3.2877682 L0.339045714,3.2877682 C0.369593322,2.90181354 3.98784366,2.54541941 9.86125299,2.34817542 L77.2662055,0.148084263 L77.2662055,0.148084263 Z" id="Path" filter="url(#filter-1)"></path>
                    </g>
                    <g id="logo-color">
                        <path d="M166.717601,4.40529319 C156.367023,-1.46027025 143.684851,-1.40009247 133.390911,4.5622274 C104.788767,21.1288158 46.5791563,54.8448909 17.9675726,71.418559 C7.66537299,77.3855987 1.30186793,88.3686332 1.24876989,100.274394 C1.10363525,132.916709 0.812186007,198.829075 0.666709472,231.644843 C0.61277337,243.688659 7.02465664,254.834527 17.4625513,260.842865 C46.1166134,277.338656 103.949818,310.631127 132.653438,327.154057 C143.129092,333.184815 156.040175,333.108117 166.443851,326.953465 C182.931382,317.198765 208.837326,301.871131 231.708421,288.33939 C241.813568,282.360551 248.042558,271.519111 248.118075,259.777365 C248.193593,248.036798 242.105017,237.115121 232.077748,231.006487 C218.510609,222.742072 204.860872,214.426919 195.403522,208.666372 C188.346202,204.366611 179.175581,206.156604 174.251623,212.792679 C169.423241,219.301319 163.427882,227.382841 158.570002,233.929239 C156.460239,236.772934 153.128042,238.448472 149.585813,238.444932 C146.044764,238.441392 142.714927,236.759955 140.611065,233.91154 C119.251493,204.92119 101.230019,174.359138 87.0280629,141.156344 C85.6416141,137.897305 85.8835051,134.173362 87.6805788,131.121995 C89.4764725,128.069447 92.6151566,126.049362 96.1373266,125.680036 C132.308891,121.941934 166.855656,120.922451 203.014241,124.364384 C206.55883,124.718371 209.722293,126.744356 211.526446,129.815783 C213.33178,132.88721 213.560691,136.635931 212.144744,139.904411 C210.318171,144.156974 208.241448,148.951137 206.206023,153.648543 C200.472614,166.886474 205.74466,182.313225 218.380813,189.272608 C226.448175,193.713964 235.933845,198.937631 245.487952,204.199057 C256.482787,210.253413 269.849333,210.087039 280.690773,203.762473 C291.532213,197.436726 298.254424,185.882593 298.393659,173.331396 C298.685108,147.115124 299.008416,118.098816 299.21935,99.4024059 C299.352964,87.1981164 292.844324,75.8846941 282.227076,69.8669163 C253.300444,53.4737816 195.302045,20.6049151 166.717601,4.40529319 Z" id="Path" fill="url(#linearGradient-2)"></path>
                        <path d="M179.137822,11.4838518 C179.137822,11.4838518 208.161211,35.2127758 219.049849,68.7329782 C230.65708,104.465599 210.097519,147.111584 199.298558,165.902391 C197.785854,168.492395 197.377589,171.581521 198.16698,174.474774 C198.95637,177.368027 200.87616,179.822337 203.495663,181.283123 C221.691771,191.449627 259.942419,212.795039 281.908488,225.053607 C285.353961,226.975756 289.556965,226.939177 292.968219,224.95685 C296.378294,222.974524 298.491596,219.340258 298.525814,215.395663 C298.786585,185.862534 299.288066,128.934356 299.554736,98.7852886 C299.662112,86.5408807 293.085035,75.212119 282.39817,69.2356396 C249.032542,50.5746286 179.137822,11.4838518 179.137822,11.4838518 Z" id="Path" fill="url(#linearGradient-3)"></path>
                        <g id="Group" transform="translate(155.201359, 267.179065) scale(-1, 1) rotate(120.000012) translate(-155.201359, -267.179065) translate(94.701359, 159.179065)" fill="url(#linearGradient-4)">
                            <path d="M0.267850017,0.0271205583 C0.267850017,0.0271205583 29.2912283,23.7560362 40.1798625,57.2762269 C51.7870899,93.0088351 31.2275361,135.654806 20.4285786,154.445605 C18.915875,157.035609 18.5076102,160.124734 19.2970008,163.017986 C20.0863914,165.911238 22.0061798,168.365547 24.6256822,169.826332 C42.821784,179.992833 81.0724184,201.338238 103.03848,213.596801 C106.483951,215.518949 110.686955,215.482371 114.098208,213.500044 C117.50828,211.517718 119.621582,207.883454 119.6558,203.938861 L120.684722,87.3285268 C120.792098,75.0841232 114.215023,63.7553654 103.528161,57.7788881 C70.162545,39.1178836 0.267850017,0.0271205583 0.267850017,0.0271205583 Z" id="Path"></path>
                        </g>
                    </g>
                </g>
            </g>
        </g>
    </g>
</svg>

<svg xmlns="http://www.w3.org/2000/svg" width="300" height="407" viewBox="0 0 300 407">
    <defs>
        <linearGradient id="4nwbvgic9b" x1="15.077%" x2="63.346%" y1="28.364%" y2="57.831%">
            <stop offset="0%" stop-color="#CF44FB"/>
            <stop offset="57%" stop-color="#2854C6"/>
            <stop offset="79%" stop-color="#1E46B6"/>
            <stop offset="100%" stop-color="#001A86"/>
        </linearGradient>
        <linearGradient id="b1h7puz8nc" x1="41.074%" x2="62.374%" y1="77.006%" y2="31.374%">
            <stop offset="0%" stop-color="#11DADC"/>
            <stop offset="100%" stop-color="#0C7CFE"/>
        </linearGradient>
        <linearGradient id="vryo9vzh3d" x1="49.223%" x2="53.147%" y1="92.158%" y2="26.372%">
            <stop offset="0%" stop-color="#11D8DD"/>
            <stop offset="100%" stop-color="#0C7CFE"/>
        </linearGradient>
        <filter id="zw8lr5yupa" width="134.5%" height="647.3%" x="-17.2%" y="-273.6%" filterUnits="objectBoundingBox">
            <feGaussianBlur in="SourceGraphic" stdDeviation="10"/>
        </filter>
    </defs>
    <g fill="none" fill-rule="evenodd">
        <g>
            <g>
                <g fill="#000" opacity=".7">
                    <path d="M77.266.148C83.26-.048 90.642-.049 96.667.143l10.327.33 57.017 1.797c6.222.196 10.05.567 9.989.969l-.6 3.825c-.02.13-1.25.249-3.235.314-1.986.065-4.433.066-6.439.003l-45.648-1.436c-1.525-.048-2.643-.128-3.102-.223-.46-.095-.222-.196.659-.281l.294-.03.301-.03.465-.047.318-.032.324-.034.328-.035.334-.035.337-.037.341-.037.344-.039.173-.02.348-.04.174-.02.35-.04.175-.021.35-.042.176-.022.351-.043c.234-.03.467-.059.699-.09l.347-.045.173-.023.343-.046.844-.12c.307-.087.044-.178-.77-.256-1.051-.1-2.893-.167-4.956-.179-21.05-.113-41.162-.08-62.22.043-2.05.012-3.877.079-4.922.179-1.046.1-1.187.222-.38.329 8.268 1.089 18.759 2.092 31.193 3.043 1.225.093 3.164.148 5.225.148 2.062 0 4.002-.055 5.23-.148l4.863-.37.248-.02.486-.04.237-.02.463-.04.226-.02.441-.038.426-.038.412-.037.396-.036.38-.035.185-.017.359-.034.342-.033.327-.031c.866-.086 2.304-.148 3.993-.173 1.688-.025 3.485-.01 4.983.04l44.892 1.51c1.972.066 3.177.186 3.17.315-.006.13-1.223.25-3.202.315L97.06 10.812c-6.142.203-13.768.202-19.892-.003L18 8.823l.093.002-8.314-.27C3.702 8.358-.032 7.992 0 7.597l.339-4.31c.03-.385 3.649-.742 9.522-.939l67.405-2.2z" filter="url(#zw8lr5yupa)" transform="translate(-1170 -142) translate(1170 142) translate(63 366)"/>
                </g>
                <g>
                    <path fill="url(#4nwbvgic9b)" d="M166.718 4.405c-10.351-5.865-23.033-5.805-33.327.157C104.789 21.13 46.579 54.845 17.968 71.42c-10.303 5.967-16.666 16.95-16.72 28.855l-.581 131.37c-.054 12.045 6.358 23.19 16.796 29.199l115.19 66.311c10.476 6.03 23.387 5.954 33.79-.2l65.265-38.615c10.106-5.978 16.335-16.82 16.41-28.562.076-11.74-6.013-22.662-16.04-28.77l-36.674-22.34c-7.058-4.3-16.228-2.51-21.152 4.126l-15.682 21.136c-2.11 2.844-5.442 4.52-8.984 4.516-3.541-.004-6.871-1.685-8.975-4.533-21.36-28.99-39.381-59.553-53.583-92.756-1.386-3.259-1.144-6.983.653-10.034 1.795-3.053 4.934-5.073 8.456-5.442 36.172-3.738 70.719-4.758 106.877-1.316 3.545.354 6.708 2.38 8.512 5.452 1.806 3.071 2.035 6.82.619 10.088-1.827 4.253-3.904 9.047-5.939 13.745-5.733 13.237-.461 28.664 12.175 35.624l27.107 14.926c10.995 6.054 24.361 5.888 35.203-.437 10.841-6.325 17.563-17.88 17.703-30.43.291-26.217.614-55.233.825-73.93.134-12.204-6.375-23.517-16.992-29.535L166.717 4.405z" transform="translate(-1170 -142) translate(1170 142)"/>
                    <path fill="url(#b1h7puz8nc)" d="M179.138 11.484s29.023 23.729 39.912 57.249c11.607 35.733-8.952 78.379-19.751 97.17-1.513 2.59-1.921 5.679-1.132 8.572.79 2.893 2.71 5.347 5.329 6.808 18.196 10.167 56.446 31.512 78.412 43.77 3.446 1.923 7.649 1.886 11.06-.096 3.41-1.982 5.524-5.617 5.558-9.561l1.029-116.61c.107-12.245-6.47-23.574-17.157-29.55l-103.26-57.752z" transform="translate(-1170 -142) translate(1170 142)"/>
                    <g fill="url(#vryo9vzh3d)" transform="translate(-1170 -142) translate(1170 142) scale(1 -1) rotate(-60 -217.064 -161.603)">
                        <path d="M.268.027S29.29 23.756 40.18 57.277c11.607 35.732-8.952 78.378-19.751 97.169-1.513 2.59-1.921 5.679-1.132 8.572.79 2.893 2.71 5.348 5.329 6.808 18.196 10.167 56.446 31.512 78.412 43.77 3.446 1.923 7.649 1.886 11.06-.096 3.41-1.982 5.524-5.617 5.558-9.561l1.029-116.61c.107-12.245-6.47-23.574-17.157-29.55L.268.027z"/>
                    </g>
                </g>
            </g>
        </g>
    </g>
</svg>
